X:1
T:Title
%%score { 1 | 2 }
L:1/8
Q:1/4=84
M:6/8
K:F
V:1 treble nm="Grand Piano"
V:2 treble 
V:1
 AAA BAA | Bcd c3 | cBA [EG][EG][EG] | [EG][FA][GB] A3 | AAA BAA | ABc d3 | cBA A[EG]F | %7
w: J.~H.~Hall * * * * *|||||||
 [DG]FE F3 | AAA BAA | [FA][EG][EG] [EG]3 | [EG][EG][EG] [EG][FA][GB] | [GB]AA A3 | AAA BAA | %13
w: ||||||
 ABc d3 | cBA A[B,EG][A,F] | [B,DG][A,CF][G,CE] [A,CF]3 |] %16
w: |||
V:2
 [F,CF][F,CF][F,CF] [F,DF][F,CF][F,CF] | [F,G,F][F,A,F][F,B,F] [F,A,F]3 | %2
 [A,CF][K:bass][G,CE][F,CF] [C,C][C,C][C,C] | [C,C][C,C][C,C][K:treble] [F,CF]3 | %4
 [F,CF][F,CF][F,CF] [F,DF][F,CF][F,CF] | [F,CF][G,CF][A,CF] [B,F]3 | %6
 [A,CF][K:bass][G,CE][F,CF] [F,CF][C,B,][D,A,] | [B,,B,][C,A,C][C,G,C] [F,A,C]3 | %8
 [F,CF][F,CF][F,CF] [F,DF][F,CF][F,CF] | [C,C][C,C][C,C] [C,C]3 | [C,C][C,C][C,C] [C,C][C,C][C,C] | %11
 [F,C][K:treble][F,CF][F,CF] [F,CF]3 | [F,CF][F,CF][F,CF] [F,DF][F,CF][F,CF] | %13
 [F,CF][G,CF][A,CF] [B,F]3 | [A,CF][K:bass][G,CE][F,CF] [F,CF]C,D, | B,,C,C, F,3 |] %16

